X: 1
T: V'ha'er eyneynu
T: Enlighten our eyes to Torah
C: Shlomo Carlebach
M: C
L: 1/8
K: Dm
D | "Dm"(DA,) F2 "A7"F E2 D | "Dm"(DA,) F2 "A7"F E2 D \
| "Dm"(DE) F2 (FG) A2 | "Gm"GA (BA) G4 \
| "Gm"(GA B2) "A7"AG2 G | "Dm"(FG A2) GF2 D |
| DA, D2 "Bb"DE F2 | "A7"ED (^CE) "Dm"D3 \
:: A | "Dm"(A2 d2 ^c2) d2 | "Gm"B6 zB \
| (B2 d2) ^c2 d2 | "Dm"A6 zA \
| "Dm"(A2 d2) ^c2 d2 | "Gm"(e2 d2 B4) \
| d2 e2 d2 B2 | "A7"A6  z :|
